X:1
T:Title
%%score { ( 1 3 ) | ( 2 4 ) }
L:1/8
Q:1/4=100
M:4/4
K:Eb
V:1 treble nm="Grand Piano"
V:3 treble 
V:2 bass 
V:4 bass 
V:1
 G2 G>[FA] [GB]2 [Ac]2 | [GB]4 G2 z2 | E2 E>E A2 G2 | [B,DF]6 z2 | %4
w: Benjamin~Franklin~Butts * * * *||||
 [B,EG]2 [B,EG]>[B,FA] [EGB]2 [EAc]2 | [EGB]4 [B,EG]2 z2 | %6
w: ||
 [B,E]2 [B,E]>[CEF] [B,EG]2 [B,DG]>[A,DF] | [G,E]6 z2 | [Ec]2 [Ec]>[Ec] [EB]4 | %9
w: |||
 [DA]2 [DA]>[DA] G4 | F2 F>F =A2 c2 | B2- [EB-]2 [FB]2 z2 | B2 B>c B4 | c2 e>c B4 | %14
w: |||||
 [B,E]2 [B,EB]>[CEA] [B,EG]2 [B,DG]>[A,DF] | [G,E]6 z2 |] %16
w: ||
V:2
 [E,B,E]2 [E,B,E]>[E,B,] [E,E]2 [E,E]2 | [E,E]4 [E,B,E]2 z2 | %2
 [E,G,]2 [E,G,]>[E,G,] [E,CE]2 [E,B,E]2 | B,,6 z2 | E,2 E,>E, E,2 E,2 | E,4 E,2 z2 | %6
 G,,2 G,,>A,, B,,2 B,,>B,, | E,6 z2 | [A,,A,]2 [A,,A,]>[A,,A,] [E,G,]4 | %9
 [B,,B,]2 [B,,B,]>[B,,B,] [E,B,E]4 | [F,B,D]2 [F,B,D]>[F,B,D] [F,CE]2 [F,=A,E]2 | z2 G,2 B,2 z2 | %12
 [E,G,E]2 [E,G,E]>[E,G,E] [E,G,E]4 | [A,E]2 [A,CE]>[A,E] [E,G,E]4 | A,,2 G,,>A,, B,,2 B,,>B,, | %15
 E,6 z2 |] %16
V:3
 x8 | x8 | x8 | x8 | x8 | x8 | x8 | x8 | x8 | x8 | x8 | [B,D]2 z2 z4 | x8 | x8 | x8 | x8 |] %16
V:4
 x8 | x8 | x8 | x8 | x8 | x8 | x8 | x8 | x8 | x8 | x8 | B,,6 z2 | x8 | x8 | x8 | x8 |] %16

